!!!!SEGMENT: T373_Str-w6p84m4-1h145m1-4.krn
!!!COM: Stravinsky, Igor (Fyodorovich)
!!!OTL: III: Valse (Waltz [The Ballerina and the Moor])
!!!OMV: IV: Valse (Waltz)
!!!example: 373
!!!work: Str-6
!!!AGN-sub: Ballet
!!!OPR: Petrushka, Burlesque in Four Scenes for Orchestra
!!!filename: T373_Str-w6p84m4-1h145m1-4.krn
**kern	**dynam	**kern	**dynam	**kern	**dynam	**kern	**dynam	**kern	**dynam	**kern	**dynam	**kern	**dynam	**kern	**dynam	**kern	**dynam	**kern	**dynam	**kern	**dynam
*grp:A	*	*grp:A	*	*grp:B	*	*grp:B	*	*grp:A	*	*grp:A	*	*grp:B	*	*grp:A	*	*grp:A	*	*grp:B	*	*grp:B	*
*part10	*	*part9	*	*part8	*	*part8	*	*part7	*	*part6	*	*part5	*	*part4	*	*part3	*	*part2	*	*part1	*
*staff11	*	*staff10	*	*staff9	*	*staff8	*	*staff7	*	*staff6	*	*staff5	*	*staff4	*	*staff3	*	*staff2	*	*staff1	*
*ICstr	*	*ICstr	*	*ICstr	*	*ICstr	*	*ICidio	*	*ICidio	*	*ICbras	*	*ICww	*	*ICww	*	*ICww	*	*ICww	*
*Icbass	*	*Icello	*	*Iarpa	*	*Iarpa	*	*Ibdrum	*	*Ipiatt	*	*Itromp	*	*Ifagot	*	*Icangl	*	*Iflt	*	*Ipicco	*
*I"Contrabass	*	*I"Violoncello	*	*I"Harp	*	*I"Harp	*	*I"Bass Drum	*	*I"Cymbals	*	*I"Trumpet in Bb	*	*I"Bassoon	*	*I"English Horn	*	*I"Flute	*	*I"Piccolo	*
*I'cb	*	*I'vc	*	*I'arp	*	*I'arp	*	*I'b-dr	*	*I'cymb	*	*I'tp	*	*I'bn	*	*I'cor-en	*	*I'fl	*	*I'picc	*
*	*	*	*	*	*	*	*	*stria1	*	*stria1	*	*	*	*	*	*	*	*	*	*	*
*clefF4	*	*clefF4	*	*clefF4	*	*clefG2	*	*clefX	*	*clefX	*	*clefG2	*	*clefF4	*	*clefG2	*	*clefG2	*	*clefG2	*
*ITrd7c12	*	*	*	*	*	*	*	*	*	*	*	*ITrd1c2	*	*	*	*ITrd4c7	*	*	*	*ITrd-7c-12	*
*k[f#c#g#d#a#]	*	*k[f#c#g#d#a#]	*	*k[f#c#g#d#a#]	*	*k[f#c#g#d#a#]	*	*	*	*	*	*k[0]	*	*k[f#c#g#d#a#]	*	*k[f#c#g#d#a#]	*	*k[f#c#g#d#a#]	*	*k[f#c#g#d#a#]	*
*B:	*	*B:	*	*B:	*	*B:	*	*	*	*	*	*A:	*	*B:	*	*E:	*	*B:	*	*B:	*
!!LO:TX:omd:tempo:a:t=[Allegretto]\n[[quarter-dot]=60]
*M3/4	*	*M3/4	*	*M3/4	*	*M3/4	*	*M3/4	*	*M3/4	*	*M3/4	*	*M3/4	*	*M3/4	*	*M3/4	*	*M3/4	*
*MM180	*	*MM180	*	*MM180	*	*MM180	*	*MM180	*	*MM180	*	*MM180	*	*MM180	*	*MM180	*	*MM180	*	*MM180	*
=34	=34	=34	=34	=34	=34	=34	=34	=34	=34	=34	=34	=34	=34	=34	=34	=34	=34	=34	=34	=34	=34
.	.	.	.	.	.	.	.	.	.	.	.	.	.	.	.	.	.	(>8qccc##/	.	.	.
*	*	*	*	*	*	*	*	*	*	*	*	*	*	*	*	*Xtuplet	*	*	*	*	*
*	*	*	*	*	*	*	*	*	*	*Xtuplet	*	*	*	*Xtuplet	*	*	*	*	*	*	*
!	!	!	!	!	!	!	!LO:DY:ed=brack	!	!	!	!	!	!	!	!LO:DY:ed=brack	!	!LO:DY:ed=brack	!	!LO:DY:ed=brack	!	!
2.r	.	8%3r	.	4DD#	.	2ff# 2ddd#	mf	2.r	.	2.r	.	2.r	.	(8%3AA#	mf	(8%3A#	mf	4ff#') 4ddd#	mf	2.r	.
.	.	.	.	4FF# 4D#	.	.	.	.	.	.	.	.	.	.	.	.	.	4r	.	.	.
!	!	!	!LO:DY:ed=brack	!	!	!	!	!	!	!	!	!	!	!	!	!	!	!	!	!	!
.	.	8%3GG#	p	.	.	.	.	.	.	.	.	.	.	8%3GG#	.	8%3G#	.	.	.	.	.
.	.	.	.	4FF# 4D#	.	4ee#X 4ccc#	.	.	.	.	.	.	.	.	.	.	.	4ee#X' 4ccc#	.	.	.
=35	=35	=35	=35	=35	=35	=35	=35	=35	=35	=35	=35	=35	=35	=35	=35	=35	=35	=35	=35	=35	=35
*Xtuplet	*	*Xtuplet	*	*	*	*	*	*	*	*Xtuplet	*	*	*	*	*	*	*	*	*	*	*
!	!LO:DY:ed=brack	!	!	!	!	!	!	!	!	!	!	!	!	!	!	!	!	!	!	!	!
8%3AAA#	p	8%3r	.	4EE	.	8r	.	2.r	.	8%3r	.	2.r	.	8%3AA#	.	8%3A#	.	8r	.	4r	.
.	.	.	.	.	.	8ee#X 8ccc#L	.	.	.	.	.	.	.	.	.	.	.	(8ee#X 8ccc#L	.	.	.
.	.	.	.	4GG#X 4E	.	8ff# 8ddd#	.	.	.	.	.	.	.	.	.	.	.	8ff# 8ddd#	.	8r	.
!	!	!	!	!	!	!	!	!	!	!	!LO:DY:ed=brack	!	!	!	!	!	!	!	!	!	!LO:DY:ed=brack
8%3r	.	8%3BB	.	.	.	8ee# 8ccc#	.	.	.	/8%3Re	p	.	.	8%3BB	.	8%3B	.	8ee# 8ccc#	.	(8ccc#L	mf
.	.	.	.	4GG# 4E	.	8ff# 8ddd#	.	.	.	.	.	.	.	.	.	.	.	8ccc# 8ddd#	.	8aaa#	.
.	.	.	.	.	.	8gg# 8eee#XJ	.	.	.	.	.	.	.	.	.	.	.	8bb) 8eee#XJ	.	8ggg#J)	.
=36	=36	=36	=36	=36	=36	=36	=36	=36	=36	=36	=36	=36	=36	=36	=36	=36	=36	=36	=36	=36	=36
8%3CC#	.	8%3r	.	4DD#	.	8ff#L 8aa#	.	2.r	.	8%3r	.	2.r	.	8%3C#	.	8%3c#	.	8ff#' 8aa#L	.	8fff#'L	.
.	.	.	.	.	.	8f#J 8a#	.	.	.	.	.	.	.	.	.	.	.	8ff#' 8aa#	.	8fff#'	.
.	.	.	.	4AA#	.	8ff#L 8aa#	.	.	.	.	.	.	.	.	.	.	.	8ff#' 8aa#	.	8fff#'	.
8%3r	.	8%3BB	.	.	.	8f#J 8a#	.	.	.	/8%3Re	.	.	.	8%3BB)	.	8%3B)	.	8ff#' 8aa#	.	8fff#'	.
.	.	.	.	4AA#	.	8ff#L 8aa#	.	.	.	.	.	.	.	.	.	.	.	8ff#' 8aa#	.	8fff#'	.
.	.	.	.	.	.	8f#J 8a#	.	.	.	.	.	.	.	.	.	.	.	8ff#' 8aa#J	.	8fff#'J	.
=37	=37	=37	=37	=37	=37	=37	=37	=37	=37	=37	=37	=37	=37	=37	=37	=37	=37	=37	=37	=37	=37
*	*	*	*	*	*	*	*	*	*	*Xtuplet	*	*	*	*	*	*	*	*	*	*	*
!	!	!	!	!	!	!	!	!	!	!	!	!LO:TX:i:t=come sopra	!	!	!	!	!	!	!	!	!
16%3r	.	8%3r	.	4AA#	.	4ff# 4aa#	.	2.r	.	16%3r	.	8r	.	(16%3AA#~L	.	(16%3A#~L	.	8ff#' 8aa#	.	8fff#'	.
!	!	!	!	!	!	!	!	!	!	!	!	!	!LO:DY:ed=brack	!	!	!	!	!	!	!	!
.	.	.	.	.	.	.	.	.	.	.	.	8ff-XL	pp	.	.	.	.	8r	.	8r	.
16%3GGG#	.	.	.	.	.	.	.	.	.	/16%3Re	.	.	.	16%3GG#J	.	16%3G#J	.	.	.	.	.
.	.	.	.	4r	.	4r	.	.	.	.	.	8dd-X	.	.	.	.	.	4r	.	4r	.
8%3r	.	8%3F#	.	.	.	.	.	.	.	8%3r	.	8b	.	8%3FF#	.	8%3F#	.	.	.	.	.
!	!	!	!	!	!	!LO:TX:b:t=E♮	!	!	!	!	!	!	!	!	!	!	!	!	!	!	!
.	.	.	.	4r	.	4r	.	.	.	.	.	8g-X	.	.	.	.	.	4r	.	4r	.
.	.	.	.	.	.	.	.	.	.	.	.	8d-XJ	.	.	.	.	.	.	.	.	.
!!LO:REH:t=145
=38	=38	=38	=38	=38	=38	=38	=38	=38	=38	=38	=38	=38	=38	=38	=38	=38	=38	=38	=38	=38	=38
*	*	*	*	*	*	*	*	*Xtuplet	*	*	*	*	*	*	*	*	*	*	*	*	*
!	!	!	!	!	!	!	!	!	!LO:DY:ed=brack	!	!	!	!	!	!	!	!	!	!	!	!
8%3GGG#	.	2.r	.	4DD#	.	4r	.	/8%3Re	p	/8%3Re	.	2.r	.	2.GG#,)	.	2.G#,)	.	4r	.	2.r	.
.	.	.	.	.	.	.	.	.	.	.	.	.	.	.	.	.	.	(>8qccc##/	.	.	.
.	.	.	.	4FF# 4D#	.	4ff# 4ddd#	.	.	.	.	.	.	.	.	.	.	.	4ff#') 4ddd#	.	.	.
8%3r	.	.	.	.	.	.	.	8%3r	.	8%3r	.	.	.	.	.	.	.	.	.	.	.
.	.	.	.	.	.	.	.	.	.	.	.	.	.	.	.	.	.	(>8qccc##/	.	.	.
.	.	.	.	4FF# 4D#	.	4ff# 4ddd#	.	.	.	.	.	.	.	.	.	.	.	4ff#') 4ddd#	.	.	.
=39	=39	=39	=39	=39	=39	=39	=39	=39	=39	=39	=39	=39	=39	=39	=39	=39	=39	=39	=39	=39	=39
.	.	.	.	.	.	.	.	.	.	.	.	.	.	.	.	.	.	(>8qccc#/	.	.	.
8%3DD#	.	8%3D#	.	4DD#	.	2ff# 2ddd#	.	8%3r	.	8%3r	.	2.r	.	(<8%3D#~	.	(8%3d#~	.	4ff#') 4ddd#	.	2.r	.
.	.	.	.	4FF# 4D#	.	.	.	.	.	.	.	.	.	.	.	.	.	4r	.	.	.
8%3r	.	8%3r	.	.	.	.	.	16%3x	.	\16%3Re<L	.	.	.	16%3C#L	.	16%3c#L	.	.	.	.	.
.	.	.	.	4FF# 4D#	.	4dd# 4ff#	.	.	.	.	.	.	.	.	.	.	.	4dd#' 4ff#	.	.	.
.	.	.	.	.	.	.	.	16%3ryy	.	/16%3ReJ	.	.	.	16%3BBJ	.	16%3BJ	.	.	.	.	.
=40	=40	=40	=40	=40	=40	=40	=40	=40	=40	=40	=40	=40	=40	=40	=40	=40	=40	=40	=40	=40	=40
8%3r	.	2.r	.	4DD#	.	4r	.	2.r	.	8%3r	.	2.r	.	8%3C#	.	8%3c#	.	4r	.	2.r	.
.	.	.	.	.	.	.	.	.	.	.	.	.	.	.	.	.	.	(>8qccc##/	.	.	.
.	.	.	.	4FF# 4D#	.	4ff# 4ddd#	.	.	.	.	.	.	.	.	.	.	.	4ff#') 4ddd#	.	.	.
8%3BBB	.	.	.	.	.	.	.	.	.	/8%3Re	.	.	.	8%3BB)	.	8%3B)	.	.	.	.	.
.	.	.	.	.	.	.	.	.	.	.	.	.	.	.	.	.	.	(>8qccc##/	.	.	.
.	.	.	.	4FF# 4D#	.	4ff# 4ddd#	.	.	.	.	.	.	.	.	.	.	.	4ff#') 4ddd#	.	.	.
=41	=41	=41	=41	=41	=41	=41	=41	=41	=41	=41	=41	=41	=41	=41	=41	=41	=41	=41	=41	=41	=41
.	.	.	.	.	.	.	.	.	.	.	.	.	.	.	.	.	.	(>8qccc##/	.	.	.
2.r	.	8%3r	.	4DD#	.	2ff# 2ddd#	.	2.r	.	8%3r	.	2.r	.	(8%3AA#i	.	(8%3A#i	.	4ff#') 4ddd#	.	2.r	.
.	.	.	.	4FF# 4D#	.	.	.	.	.	.	.	.	.	.	.	.	.	4r	.	.	.
.	.	8%3GG#	.	.	.	.	.	.	.	/8%3Re	.	.	.	8%3GG#	.	8%3G#	.	.	.	.	.
.	.	.	.	4FF# 4D#	.	4dd# 4ff#	.	.	.	.	.	.	.	.	.	.	.	4dd#' 4ff#	.	.	.
=	=	=	=	=	=	=	=	=	=	=	=	=	=	=	=	=	=	=	=	=	=
*-	*-	*-	*-	*-	*-	*-	*-	*-	*-	*-	*-	*-	*-	*-	*-	*-	*-	*-	*-	*-	*-
!!!system-decoration: [(s1,s2,s3,s4)]s5[(s6,s7)]{(s8,s9)}[(s10,s11)]
!!!RDF**kern: > = above
!!!RDF**kern: < = below
!!!RDF**kern: i = marked note, color="hotpink", text="extra("
!!!EED: Daniel Wright
!!!EEV: 2022/08/19
!!!EED2: Jason Lee
!!!EEV2: 2022/10/22
!!!CDT: 1882/06/17-1971/04/06
!!!CBL: Lomonosov (Oranienbaum), Russia
!!!CDL: New York, United States
!!!CNT: Russian,French,American
!!!OMD:
!!!AGN: Stage
!!!MCN: Monteux, Pierre
!!!MDT: 1911/06/13
!!!MGN: Ballets Russes
!!!MLC: Paris, France
!!!MPD: 1911
!!!MPN: Cecchetti, Enrico; Karsavina, Tamara; Nijinska, Bronislava; Nijinsky, Vaslav; Orlov, Alexandre; Shollar, Ludmila
!!!ODT: 1911 (rev. 1946)
!!!PDT: 1912
!!!excerpt-start-measure: 34
!!!excerpt-end-measure: 41
!!!excerpt-start-time: 0:56
!!!excerpt-end-time: 1:04
!!!EEV: 2020/01/27
!!!Suter_Work_ID: Str-6
!!!Suter_Example_Number: 373
!!!Suter_Example_ID: Str-6/84/4-1[145]1-4
!!!Premiere_Location: Paris,France
!!!Other_Tsigs: none
!!!Full_Unit_Duration: 3:18
!!!First_Publication_Year: 1912
!!!First_Public_Performance_Year: 1911
!!!Example_Total_Measures: 8
!!!Example_Timestamp_Duration: 7
!!!Example_Start_Tsig_Type: simple triple
!!!Example_Start_Tsig_Mean_Beat_Rate: 90
!!!Example_Start_Tsig_Beat_Rate: 90
!!!Example_Start_Tsig_Beat: quarter
!!!Example_Start_Tsig: 3/4
!!!Example_Start_Timestamp: 0:56
!!!Example_Start_Tempo_Expression: [Allegretto]
!!!Example_Start_Notated_Beat_Rate: [60]
!!!Example_Start_Notated_Beat: [dotted-quarter]
!!!Example_Start_Measure: 34
!!!Example_Metadata_Validated: Y
!!!Example_End_Timestamp: 1:03
!!!Example_End_Measure: 41
!!!Example_Dataset: T
!!!Editorial_Comments: Example Start Notated Beat and Example Start Notated Beat Rate [dotted-quarter=60] based on most recent notated beat rate (SWFU, m. 21). Example Start Tempo Expression [Allegretto] based on most recent notated tempo expression (SWFU, m. 21).
!!!Death_Place: New York,United States
!!!Death_Date: 6-Apr-1971
!!!Changing_Tsig: no
!!!Birth_Place: Lomonosov (Oranienbaum),Russia
!!!Birth_Date: 17-Jun-1882
!!!Audio_Example_Quarter_Note_Tempo:
!!!Audio_Example_Duration:
!!!ONB: Converted from MusicXML on 2020/01/27
